src/images/select-pair.svg

<svg xmlns="http://www.w3.org/2000/svg" width="80" height="80" viewBox="0 0 80 80" fill="none"><script xmlns=""/>
<g clip-path="url(#clip0_2717_122)">
<mask id="mask0_2717_122" style="mask-type:luminance" maskUnits="userSpaceOnUse" x="0" y="0" width="81" height="81">
<path d="M80.0022 0.00170898H0.00244141V80.0025H80.0022V0.00170898Z" fill="white"/>
</mask>
<g mask="url(#mask0_2717_122)">
<path fill-rule="evenodd" clip-rule="evenodd" d="M4.00122 50.0019H3.46118C1.55118 50.0019 0.0012207 48.4549 0.0012207 46.5459V14.4577C0.0012207 12.5487 1.55118 11.0017 3.46118 11.0017H4.00122V6.00171C4.00122 5.44971 4.45122 5.00171 5.00122 5.00171C5.55122 5.00171 6.00122 5.44971 6.00122 6.00171V11.0017H6.54126C8.45127 11.0017 10.0012 12.5487 10.0012 14.4577V46.5459C10.0012 48.4549 8.45127 50.0019 6.54126 50.0019H6.00122V63.0019C6.00122 63.5539 5.55122 64.0019 5.00122 64.0019C4.45122 64.0019 4.00122 63.5539 4.00122 63.0019V50.0019ZM6.54126 13.0017H3.46118C2.65118 13.0017 2.00122 13.6537 2.00122 14.4577V46.5459C2.00122 47.3499 2.65118 48.0019 3.46118 48.0019H6.54126C7.35126 48.0019 8.00123 47.3499 8.00123 46.5459V14.4577C8.00123 13.6537 7.35126 13.0017 6.54126 13.0017ZM16.0012 62.0019H15.4612C13.5512 62.0019 12.0012 60.4549 12.0012 58.5459V50.4579C12.0012 48.5489 13.5512 47.0019 15.4612 47.0019H16.0012V31.0018C16.0012 30.4498 16.4512 30.0018 17.0012 30.0018C17.5512 30.0018 18.0012 30.4498 18.0012 31.0018V47.0019H18.5413C20.4513 47.0019 22.0012 48.5489 22.0012 50.4579V58.5459C22.0012 60.4549 20.4513 62.0019 18.5413 62.0019H18.0012V65.0019C18.0012 65.5539 17.5512 66.0019 17.0012 66.0019C16.4512 66.0019 16.0012 65.5539 16.0012 65.0019V62.0019ZM18.5413 49.0019H15.4612C14.6512 49.0019 14.0012 49.6539 14.0012 50.4579V58.5459C14.0012 59.3499 14.6512 60.0019 15.4612 60.0019H18.5413C19.3513 60.0019 20.0012 59.3499 20.0012 58.5459V50.4579C20.0012 49.6539 19.3513 49.0019 18.5413 49.0019ZM40.0013 41.0019H39.4612C38.5412 41.0019 37.6613 40.6379 37.0113 39.9899C36.3613 39.3419 36.0012 38.4628 36.0012 37.5458V33.4578C36.0012 32.5408 36.3613 31.6618 37.0113 31.0138C37.6613 30.3658 38.5412 30.0018 39.4612 30.0018H40.0013V19.0018C40.0013 18.4498 40.4512 18.0018 41.0013 18.0018C41.5513 18.0018 42.0013 18.4498 42.0013 19.0018V30.0018H42.5413C43.4613 30.0018 44.3412 30.3658 44.9912 31.0138C45.6412 31.6618 46.0013 32.5408 46.0013 33.4578V37.5458C46.0013 38.4628 45.6412 39.3419 44.9912 39.9899C44.3412 40.6379 43.4613 41.0019 42.5413 41.0019H42.0013V55.5019C42.0013 56.0539 41.5513 56.5019 41.0013 56.5019C40.4512 56.5019 40.0013 56.0539 40.0013 55.5019V41.0019ZM42.5413 32.0018H39.4612C39.0712 32.0018 38.7013 32.1548 38.4313 32.4278C38.1513 32.7018 38.0012 33.0718 38.0012 33.4578V37.5458C38.0012 37.9318 38.1513 38.3018 38.4313 38.5758C38.7013 38.8488 39.0712 39.0018 39.4612 39.0018H42.5413C42.9313 39.0018 43.3012 38.8488 43.5712 38.5758C43.8512 38.3018 44.0013 37.9318 44.0013 37.5458V33.4578C44.0013 33.0718 43.8512 32.7018 43.5712 32.4278C43.3012 32.1548 42.9313 32.0018 42.5413 32.0018ZM28.0012 57.5019H27.4612C26.5412 57.5019 25.6612 57.1379 25.0112 56.4899C24.3612 55.8419 24.0012 54.9629 24.0012 54.0459V34.4578C24.0012 33.5408 24.3612 32.6618 25.0112 32.0138C25.6612 31.3658 26.5412 31.0018 27.4612 31.0018H28.0012V20.5018C28.0012 19.9498 28.4512 19.5018 29.0012 19.5018C29.5512 19.5018 30.0012 19.9498 30.0012 20.5018V31.0018H30.5413C31.4613 31.0018 32.3412 31.3658 32.9912 32.0138C33.6412 32.6618 34.0012 33.5408 34.0012 34.4578V54.0459C34.0012 54.9629 33.6412 55.8419 32.9912 56.4899C32.3412 57.1379 31.4613 57.5019 30.5413 57.5019H30.0012V67.502C30.0012 68.054 29.5512 68.502 29.0012 68.502C28.4512 68.502 28.0012 68.054 28.0012 67.502V57.5019ZM30.5413 33.0018H27.4612C27.0712 33.0018 26.7013 33.1548 26.4313 33.4278C26.1513 33.7018 26.0012 34.0718 26.0012 34.4578V54.0459C26.0012 54.4319 26.1513 54.8019 26.4313 55.0759C26.7013 55.3489 27.0712 55.5019 27.4612 55.5019H30.5413C30.9313 55.5019 31.3012 55.3489 31.5712 55.0759C31.8512 54.8019 32.0012 54.4319 32.0012 54.0459V34.4578C32.0012 34.0718 31.8512 33.7018 31.5712 33.4278C31.3012 33.1548 30.9313 33.0018 30.5413 33.0018ZM80.0013 13.8268V31.1768C80.0013 35.4988 76.5013 39.0018 72.1713 39.0018H55.8312C51.5012 39.0018 48.0013 35.4988 48.0013 31.1768V13.8268C48.0013 9.50474 51.5012 6.00171 55.8312 6.00171H72.1713C76.5013 6.00171 80.0013 9.50474 80.0013 13.8268ZM78.0013 13.8268C78.0013 10.6097 75.3913 8.00172 72.1713 8.00172H55.8312C52.6112 8.00172 50.0013 10.6097 50.0013 13.8268V31.1768C50.0013 34.3938 52.6112 37.0018 55.8312 37.0018H72.1713C75.3913 37.0018 78.0013 34.3938 78.0013 31.1768V13.8268ZM71.0013 17.4158L56.7112 31.7088C56.3212 32.0988 55.6813 32.0988 55.2913 31.7088C54.9013 31.3188 54.9013 30.6848 55.2913 30.2948L69.5912 16.0018H60.0013C59.4513 16.0018 59.0013 15.5538 59.0013 15.0017C59.0013 14.4497 59.4513 14.0017 60.0013 14.0017H72.0013C72.2713 14.0017 72.5212 14.1067 72.7112 14.2947C72.8912 14.4827 73.0013 14.7357 73.0013 15.0017V27.0018C73.0013 27.5538 72.5513 28.0018 72.0013 28.0018C71.4513 28.0018 71.0013 27.5538 71.0013 27.0018V17.4158ZM80.0013 66.1769C80.0013 70.499 76.5013 74.002 72.1713 74.002H55.8312C51.5012 74.002 48.0013 70.499 48.0013 66.1769V48.8269C48.0013 44.5049 51.5012 41.0019 55.8312 41.0019H72.1713C76.5013 41.0019 80.0013 44.5049 80.0013 48.8269V66.1769ZM78.0013 66.1769V48.8269C78.0013 45.6099 75.3913 43.0019 72.1713 43.0019H55.8312C52.6112 43.0019 50.0013 45.6099 50.0013 48.8269V66.1769C50.0013 69.394 52.6112 72.002 55.8312 72.002H72.1713C75.3913 72.002 78.0013 69.394 78.0013 66.1769ZM69.5912 64.0019L55.2913 49.7089C54.9013 49.3189 54.9013 48.6849 55.2913 48.2949C55.6813 47.9049 56.3212 47.9049 56.7112 48.2949L71.0013 62.5879V53.0019C71.0013 52.4499 71.4513 52.0019 72.0013 52.0019C72.5513 52.0019 73.0013 52.4499 73.0013 53.0019V65.0019C73.0013 65.2679 72.8912 65.5209 72.7112 65.709C72.5212 65.8969 72.2713 66.0019 72.0013 66.0019H60.0013C59.4513 66.0019 59.0013 65.5539 59.0013 65.0019C59.0013 64.4499 59.4513 64.0019 60.0013 64.0019H69.5912Z" fill="url(#paint0_linear_2717_122)"/>
</g>
</g>
<defs>
<linearGradient id="paint0_linear_2717_122" x1="20.0012" y1="17.2628" x2="60.0014" y2="57.8908" gradientUnits="userSpaceOnUse">
<stop stop-color="#0099FA"/>
<stop offset="1" stop-color="#0054FA"/>
</linearGradient>
<clipPath id="clip0_2717_122">
<rect width="80" height="80" fill="white"/>
</clipPath>
</defs>
<script xmlns=""/></svg>

<svg xmlns="http://www.w3.org/2000/svg" width="80" height="80" fill="none"><script/><g clip-path="url(#a)"><mask id="b" style="mask-type:luminance" maskUnits="userSpaceOnUse" x="0" y="0" width="81" height="81"><path d="M80.002.002h-80v80h80v-80z" fill="#fff"/></mask><g mask="url(#b)"><path fill-rule="evenodd" clip-rule="evenodd" d="M4.001 50.002h-.54a3.458 3.458 0 0 1-3.46-3.456V14.458a3.458 3.458 0 0 1 3.46-3.456h.54v-5c0-.552.45-1 1-1s1 .448 1 1v5h.54c1.91 0 3.46 1.547 3.46 3.456v32.088a3.458 3.458 0 0 1-3.46 3.456h-.54v13c0 .552-.45 1-1 1s-1-.448-1-1v-13zm2.54-37h-3.08c-.81 0-1.46.652-1.46 1.456v32.088c0 .804.65 1.456 1.46 1.456h3.08c.81 0 1.46-.652 1.46-1.456V14.458c0-.804-.65-1.456-1.46-1.456zm9.46 49h-.54a3.458 3.458 0 0 1-3.46-3.456v-8.088a3.458 3.458 0 0 1 3.46-3.456h.54v-16c0-.552.45-1 1-1s1 .448 1 1v16h.54c1.91 0 3.46 1.547 3.46 3.456v8.088a3.458 3.458 0 0 1-3.46 3.456h-.54v3c0 .552-.45 1-1 1s-1-.448-1-1v-3zm2.54-13h-3.08c-.81 0-1.46.652-1.46 1.456v8.088c0 .804.65 1.456 1.46 1.456h3.08c.81 0 1.46-.652 1.46-1.456v-8.088c0-.804-.65-1.456-1.46-1.456zm21.46-8h-.54c-.92 0-1.8-.364-2.45-1.012a3.446 3.446 0 0 1-1.01-2.444v-4.088c0-.917.36-1.796 1.01-2.444a3.468 3.468 0 0 1 2.45-1.012h.54v-11c0-.552.45-1 1-1s1 .448 1 1v11h.54c.92 0 1.8.364 2.45 1.012a3.446 3.446 0 0 1 1.01 2.444v4.088c0 .917-.36 1.796-1.01 2.444a3.468 3.468 0 0 1-2.45 1.012h-.54v14.5c0 .552-.45 1-1 1s-1-.448-1-1v-14.5zm2.54-9h-3.08c-.39 0-.76.153-1.03.426-.28.274-.43.644-.43 1.03v4.088c0 .386.15.756.43 1.03.27.273.64.426 1.03.426h3.08c.39 0 .76-.153 1.03-.426.28-.274.43-.644.43-1.03v-4.088c0-.386-.15-.756-.43-1.03a1.445 1.445 0 0 0-1.03-.426zm-14.54 25.5h-.54c-.92 0-1.8-.364-2.45-1.012a3.446 3.446 0 0 1-1.01-2.444V34.458c0-.917.36-1.796 1.01-2.444a3.468 3.468 0 0 1 2.45-1.012h.54v-10.5c0-.552.45-1 1-1s1 .448 1 1v10.5h.54c.92 0 1.8.364 2.45 1.012a3.446 3.446 0 0 1 1.01 2.444v19.588c0 .917-.36 1.796-1.01 2.444a3.468 3.468 0 0 1-2.45 1.012h-.54v10c0 .552-.45 1-1 1s-1-.448-1-1v-10zm2.54-24.5h-3.08c-.39 0-.76.153-1.03.426-.28.274-.43.644-.43 1.03v19.588c0 .386.15.756.43 1.03.27.273.64.426 1.03.426h3.08c.39 0 .76-.153 1.03-.426.28-.274.43-.644.43-1.03V34.458c0-.386-.15-.756-.43-1.03a1.445 1.445 0 0 0-1.03-.426zm49.46-19.175v17.35c0 4.322-3.5 7.825-7.83 7.825h-16.34a7.824 7.824 0 0 1-7.83-7.825v-17.35c0-4.322 3.5-7.825 7.83-7.825h16.34c4.33 0 7.83 3.503 7.83 7.825zm-2 0a5.827 5.827 0 0 0-5.83-5.825h-16.34a5.827 5.827 0 0 0-5.83 5.825v17.35a5.827 5.827 0 0 0 5.83 5.825h16.34c3.22 0 5.83-2.608 5.83-5.825v-17.35zm-7 3.589-14.29 14.293c-.39.39-1.03.39-1.42 0a1 1 0 0 1 0-1.414l14.3-14.293h-9.59c-.55 0-1-.448-1-1s.45-1 1-1h12a1 1 0 0 1 .71.293c.18.188.29.44.29.707v12c0 .552-.45 1-1 1s-1-.448-1-1v-9.586zm9 48.76c0 4.323-3.5 7.826-7.83 7.826h-16.34a7.824 7.824 0 0 1-7.83-7.825v-17.35c0-4.322 3.5-7.825 7.83-7.825h16.34c4.33 0 7.83 3.503 7.83 7.825v17.35zm-2 0v-17.35a5.827 5.827 0 0 0-5.83-5.824h-16.34a5.827 5.827 0 0 0-5.83 5.825v17.35a5.827 5.827 0 0 0 5.83 5.825h16.34c3.22 0 5.83-2.608 5.83-5.825zm-8.41-2.174-14.3-14.293a1 1 0 1 1 1.42-1.414l14.29 14.293v-9.586c0-.552.45-1 1-1s1 .448 1 1v12c0 .266-.11.519-.29.707a1 1 0 0 1-.71.293h-12c-.55 0-1-.448-1-1s.45-1 1-1h9.59z" fill="url(#c)"/></g></g><defs><linearGradient id="c" x1="20.001" y1="17.263" x2="60.001" y2="57.891" gradientUnits="userSpaceOnUse"><stop stop-color="#0099FA"/><stop offset="1" stop-color="#0054FA"/></linearGradient><clipPath id="a"><path fill="#fff" d="M0 0h80v80H0z"/></clipPath></defs><script/></svg>
